src/assets/logo.svg

<svg xmlns="http://www.w3.org/2000/svg" xmlns:xlink="http://www.w3.org/1999/xlink" width="500" zoomAndPan="magnify" viewBox="0 0 375 374.999991" height="500" preserveAspectRatio="xMidYMid meet" version="1.0"><defs><g/><clipPath id="f5260d23fe"><path d="M 36 35.113281 L 337 35.113281 L 337 325.699219 L 36 325.699219 Z M 36 35.113281 " clip-rule="nonzero"/></clipPath><clipPath id="d0650cd138"><path d="M 216.855469 45.308594 L 315.03125 116.488281 C 333.136719 129.613281 340.730469 152.902344 333.847656 174.175781 L 296.359375 290.023438 C 289.476562 311.292969 269.667969 325.699219 247.3125 325.699219 L 125.679688 325.699219 C 103.324219 325.699219 83.519531 311.292969 76.636719 290.023438 L 39.148438 174.175781 C 32.261719 152.902344 39.859375 129.613281 57.960938 116.488281 L 156.136719 45.308594 C 174.246094 32.179688 198.746094 32.179688 216.855469 45.308594 Z M 216.855469 45.308594 " clip-rule="nonzero"/></clipPath><clipPath id="974d9f08f1"><path d="M 0 0.113281 L 301 0.113281 L 301 290.699219 L 0 290.699219 Z M 0 0.113281 " clip-rule="nonzero"/></clipPath><clipPath id="ce53f83b64"><path d="M 180.855469 10.308594 L 279.03125 81.488281 C 297.136719 94.613281 304.730469 117.902344 297.847656 139.175781 L 260.359375 255.023438 C 253.476562 276.292969 233.667969 290.699219 211.3125 290.699219 L 89.679688 290.699219 C 67.324219 290.699219 47.519531 276.292969 40.636719 255.023438 L 3.148438 139.175781 C -3.738281 117.902344 3.859375 94.613281 21.960938 81.488281 L 120.136719 10.308594 C 138.246094 -2.820312 162.746094 -2.820312 180.855469 10.308594 Z M 180.855469 10.308594 " clip-rule="nonzero"/></clipPath><clipPath id="20562c94aa"><rect x="0" width="301" y="0" height="291"/></clipPath><clipPath id="675effce2d"><path d="M 36.546875 35.214844 L 337 35.214844 L 337 325.691406 L 36.546875 325.691406 Z M 36.546875 35.214844 " clip-rule="nonzero"/></clipPath><clipPath id="9fcb738132"><path d="M 216.859375 45.308594 L 315.03125 116.484375 C 333.132812 129.609375 340.730469 152.898438 333.84375 174.171875 L 296.359375 290.015625 C 289.476562 311.285156 269.667969 325.691406 247.316406 325.691406 L 125.683594 325.691406 C 103.332031 325.691406 83.523438 311.285156 76.640625 290.015625 L 39.15625 174.171875 C 32.269531 152.898438 39.867188 129.609375 57.96875 116.484375 L 156.140625 45.308594 C 174.25 32.179688 198.75 32.179688 216.859375 45.308594 Z M 216.859375 45.308594 " clip-rule="nonzero"/></clipPath><clipPath id="be21e5a063"><rect x="0" width="372" y="0" height="358"/></clipPath></defs><g transform="matrix(1, 0, 0, 1, 1, 13)"><g clip-path="url(#be21e5a063)"><g clip-path="url(#f5260d23fe)"><g clip-path="url(#d0650cd138)"><g transform="matrix(1, 0, 0, 1, 36, 35)"><g clip-path="url(#20562c94aa)"><g clip-path="url(#974d9f08f1)"><g clip-path="url(#ce53f83b64)"><path fill="#c1ff72" d="M -8.398438 -11.699219 L 309.359375 -11.699219 L 309.359375 290.699219 L -8.398438 290.699219 Z M -8.398438 -11.699219 " fill-opacity="1" fill-rule="nonzero"/></g></g></g></g></g></g><g clip-path="url(#675effce2d)"><g clip-path="url(#9fcb738132)"><path stroke-linecap="butt" transform="matrix(0.635591, 0, 0, 0.635591, 27.609946, 23.299247)" fill="none" stroke-linejoin="miter" d="M 297.753464 34.628159 L 452.211082 146.611775 C 480.690972 167.261847 492.644659 203.903432 481.809517 237.373756 L 422.833897 419.635219 C 412.004901 453.099398 380.839272 475.765309 345.672692 475.765309 L 154.303072 475.765309 C 119.136492 475.765309 87.970864 453.099398 77.141868 419.635219 L 18.166247 237.373756 C 7.331106 203.903432 19.284793 167.261847 47.764683 146.611775 L 202.2223 34.628159 C 230.714482 13.971942 269.261282 13.971942 297.753464 34.628159 Z M 297.753464 34.628159 " stroke="#9ee34a" stroke-width="23.60008" stroke-opacity="1" stroke-miterlimit="4"/></g></g><g fill="#000000" fill-opacity="1"><g transform="translate(122.930964, 263.552655)"><g><path d="M 39 -150.625 L 63.515625 -75.3125 L 90 -150.625 L 113.796875 -150.625 L 113.796875 0 L 95.171875 0 L 95.171875 -60.109375 L 96.71875 -123 L 68.890625 -41.890625 L 57.9375 -41.890625 L 32.375 -120.828125 L 33.9375 -60.109375 L 33.9375 0 L 15.3125 0 L 15.3125 -150.625 Z M 39 -150.625 "/></g></g></g></g></g></svg>

<svg xmlns="http://www.w3.org/2000/svg" width="500" viewBox="0 0 375 375" height="500" version="1.0"><defs><clipPath id="b"><path d="M36 35.113h301V325.7H36Zm0 0"/></clipPath><clipPath id="c"><path d="m216.855 45.309 98.176 71.18c18.106 13.124 25.7 36.413 18.817 57.687l-37.489 115.847c-6.882 21.27-26.691 35.676-49.046 35.676H125.68c-22.356 0-42.16-14.406-49.043-35.676L39.148 174.176c-6.886-21.274.711-44.563 18.813-57.688l98.176-71.18c18.11-13.128 42.61-13.128 60.718 0m0 0"/></clipPath><clipPath id="e"><path d="M0 .113h301V290.7H0Zm0 0"/></clipPath><clipPath id="f"><path d="m180.855 10.309 98.176 71.18c18.106 13.124 25.7 36.413 18.817 57.687l-37.489 115.847c-6.882 21.27-26.691 35.676-49.046 35.676H89.68c-22.356 0-42.16-14.406-49.043-35.676L3.148 139.176c-6.886-21.274.711-44.563 18.813-57.688l98.176-71.18c18.11-13.128 42.61-13.128 60.718 0m0 0"/></clipPath><clipPath id="d"><path d="M0 0h301v291H0z"/></clipPath><clipPath id="g"><path d="M36.547 35.215H337V325.69H36.547Zm0 0"/></clipPath><clipPath id="h"><path d="m216.86 45.309 98.171 71.175c18.102 13.125 25.7 36.414 18.813 57.688l-37.485 115.844c-6.882 21.27-26.691 35.675-49.043 35.675H125.684c-22.352 0-42.16-14.406-49.043-35.675L39.156 174.172c-6.886-21.274.711-44.563 18.813-57.688L156.14 45.31c18.109-13.13 42.609-13.13 60.718 0m0 0"/></clipPath><clipPath id="a"><path d="M0 0h372v358H0z"/></clipPath></defs><g clip-path="url(#a)" transform="translate(1 13)"><g clip-path="url(#b)"><g clip-path="url(#c)"><g clip-path="url(#d)" transform="translate(36 35)"><g clip-path="url(#e)"><g clip-path="url(#f)"><path fill="#c1ff72" d="M-8.398-11.7h317.757v302.4H-8.398Zm0 0"/></g></g></g></g></g><g clip-path="url(#g)"><g clip-path="url(#h)"><path fill="none" d="m216.86 45.309 98.171 71.175c18.102 13.125 25.7 36.414 18.813 57.688l-37.485 115.844c-6.882 21.27-26.691 35.675-49.043 35.675H125.684c-22.352 0-42.16-14.406-49.043-35.675L39.156 174.172c-6.886-21.274.711-44.563 18.813-57.688L156.14 45.31c18.109-13.13 42.609-13.13 60.718 0Zm0 0" stroke="#9ee34a" stroke-width="15"/></g></g><path d="m161.931 112.928 24.516 75.313 26.484-75.313h23.797v150.625h-18.625v-60.11l1.547-62.89-27.829 81.11h-10.953l-25.562-78.938 1.563 60.719v60.109h-18.627V112.928Zm0 0"/></g></svg>
